X: 286
T:Unknown March
M:4/4
R:March
L:1/8
Z:Alf Warnock - alf0@rogers.com
K:Amix
af|"A"e2e>A c2c>B|Acaf e<Ac2|"G"d2dG B2BA|GBge d2cd|
"A"e2e>A c2c>B|Aeaf e<Ac2|"A"e2ec "G"B<dGB|"A"A4 A2:|
cd|"A"e2a2 c2a>c|Acaf e2dc|"G"B2g2 d2g>B|GBge d2cd|
"A"e2a2 c2a>c|Acaf e<Ac2|"A"e2ec "G"B<dGB|"A"A4 A2:|
ec|"A"A2Ac e<Ac2|Acaf e<AcB|"G"G2GB d<GB2|GBge d2cB|
"A"A2Ac e<Ac2|Acaf e<Ac2|"A"e2ec "G"B<dGB|"A"A4 A2:|
cd|"A"e<ae<a A2Af|edcd e<Ac2|"G"e<ge<g G3e|dcBc d<GB2|
[1 "A"e<ae<a A3f|edcd e<Ac2|"A"e2ec "G"B<dGB|"A"A4 A2:|
[2 "A"ABcd e<Ace|f<ae<f A3c|"A"e2ec "G"B<dGB|"A"A4 A4|]
